src/assets/images/timer.svg

<svg width="60" height="87" viewBox="0 0 60 87" fill="none" xmlns="http://www.w3.org/2000/svg">
<path d="M11.562 82C11.274 82 11.04 81.916 10.86 81.748C10.692 81.568 10.608 81.346 10.608 81.082V70.3H12.534V81.082C12.534 81.346 12.438 81.568 12.246 81.748C12.066 81.916 11.838 82 11.562 82ZM7.476 71.128C7.224 71.128 7.008 71.05 6.828 70.894C6.648 70.726 6.558 70.51 6.558 70.246C6.558 69.994 6.648 69.79 6.828 69.634C7.008 69.478 7.224 69.4 7.476 69.4H15.666C15.918 69.4 16.128 69.484 16.296 69.652C16.476 69.808 16.566 70.012 16.566 70.264C16.566 70.528 16.476 70.738 16.296 70.894C16.128 71.05 15.918 71.128 15.666 71.128H7.476ZM20.0965 81.082C20.0965 81.346 20.0125 81.568 19.8445 81.748C19.6765 81.916 19.4605 82 19.1965 82C18.9445 82 18.7285 81.916 18.5485 81.748C18.3805 81.568 18.2965 81.346 18.2965 81.082V73.378C18.2965 73.114 18.3805 72.898 18.5485 72.73C18.7285 72.55 18.9445 72.46 19.1965 72.46C19.4605 72.46 19.6765 72.55 19.8445 72.73C20.0125 72.898 20.0965 73.114 20.0965 73.378V81.082ZM19.1785 71.272C18.8305 71.272 18.5785 71.212 18.4225 71.092C18.2665 70.96 18.1885 70.744 18.1885 70.444V70.156C18.1885 69.856 18.2725 69.646 18.4405 69.526C18.6085 69.406 18.8605 69.346 19.1965 69.346C19.5565 69.346 19.8145 69.412 19.9705 69.544C20.1265 69.664 20.2045 69.868 20.2045 70.156V70.444C20.2045 70.756 20.1205 70.972 19.9525 71.092C19.7965 71.212 19.5385 71.272 19.1785 71.272ZM27.2698 72.37C28.1578 72.37 28.8418 72.592 29.3218 73.036C29.8018 73.468 30.1198 74.056 30.2758 74.8L29.9878 74.71L30.1138 74.422C30.2698 74.11 30.5038 73.798 30.8158 73.486C31.1398 73.162 31.5238 72.898 31.9678 72.694C32.4118 72.478 32.8858 72.37 33.3898 72.37C34.2178 72.37 34.8598 72.55 35.3158 72.91C35.7718 73.258 36.0898 73.732 36.2698 74.332C36.4498 74.92 36.5398 75.58 36.5398 76.312V81.082C36.5398 81.346 36.4558 81.568 36.2878 81.748C36.1198 81.916 35.9038 82 35.6398 82C35.3878 82 35.1718 81.916 34.9918 81.748C34.8238 81.568 34.7398 81.346 34.7398 81.082V76.33C34.7398 75.91 34.6798 75.526 34.5598 75.178C34.4518 74.83 34.2538 74.554 33.9658 74.35C33.6898 74.134 33.3058 74.026 32.8138 74.026C32.3458 74.026 31.9258 74.134 31.5538 74.35C31.1938 74.554 30.9118 74.83 30.7078 75.178C30.5038 75.526 30.4018 75.91 30.4018 76.33V81.082C30.4018 81.346 30.3178 81.568 30.1498 81.748C29.9818 81.916 29.7658 82 29.5018 82C29.2378 82 29.0218 81.916 28.8538 81.748C28.6858 81.568 28.6018 81.346 28.6018 81.082V76.312C28.6018 75.892 28.5418 75.508 28.4218 75.16C28.3138 74.812 28.1218 74.536 27.8458 74.332C27.5698 74.128 27.1858 74.026 26.6938 74.026C26.2258 74.026 25.8118 74.128 25.4518 74.332C25.0918 74.536 24.8098 74.812 24.6058 75.16C24.4138 75.508 24.3178 75.892 24.3178 76.312V81.082C24.3178 81.346 24.2278 81.568 24.0478 81.748C23.8798 81.916 23.6698 82 23.4178 82C23.1538 82 22.9378 81.916 22.7698 81.748C22.6018 81.568 22.5178 81.346 22.5178 81.082V73.45C22.5178 73.186 22.6018 72.97 22.7698 72.802C22.9378 72.622 23.1538 72.532 23.4178 72.532C23.6698 72.532 23.8798 72.622 24.0478 72.802C24.2278 72.97 24.3178 73.186 24.3178 73.45V74.512L23.9758 74.71C24.0598 74.446 24.1978 74.176 24.3898 73.9C24.5818 73.624 24.8218 73.372 25.1098 73.144C25.4098 72.916 25.7398 72.73 26.0998 72.586C26.4598 72.442 26.8498 72.37 27.2698 72.37ZM43.4688 82.18C42.4728 82.18 41.6088 81.976 40.8768 81.568C40.1448 81.148 39.5748 80.578 39.1668 79.858C38.7708 79.126 38.5728 78.292 38.5728 77.356C38.5728 76.3 38.7828 75.4 39.2028 74.656C39.6348 73.9 40.1928 73.324 40.8768 72.928C41.5608 72.52 42.2868 72.316 43.0548 72.316C43.6428 72.316 44.2008 72.436 44.7288 72.676C45.2568 72.904 45.7248 73.228 46.1328 73.648C46.5528 74.056 46.8828 74.542 47.1228 75.106C47.3628 75.658 47.4888 76.264 47.5008 76.924C47.4888 77.164 47.3928 77.362 47.2128 77.518C47.0328 77.674 46.8228 77.752 46.5828 77.752H39.5808L39.1488 76.222H45.9168L45.5748 76.546V76.096C45.5508 75.676 45.4128 75.31 45.1608 74.998C44.9088 74.674 44.5968 74.428 44.2248 74.26C43.8528 74.08 43.4628 73.99 43.0548 73.99C42.6948 73.99 42.3468 74.05 42.0108 74.17C41.6868 74.278 41.3928 74.458 41.1288 74.71C40.8768 74.962 40.6728 75.298 40.5168 75.718C40.3728 76.126 40.3008 76.636 40.3008 77.248C40.3008 77.908 40.4388 78.484 40.7148 78.976C40.9908 79.468 41.3628 79.852 41.8308 80.128C42.2988 80.392 42.8148 80.524 43.3788 80.524C43.8228 80.524 44.1888 80.482 44.4768 80.398C44.7648 80.302 45.0048 80.188 45.1968 80.056C45.3888 79.924 45.5568 79.798 45.7008 79.678C45.8808 79.57 46.0608 79.516 46.2408 79.516C46.4568 79.516 46.6368 79.594 46.7808 79.75C46.9248 79.894 46.9968 80.068 46.9968 80.272C46.9968 80.536 46.8648 80.776 46.6008 80.992C46.2768 81.304 45.8268 81.58 45.2508 81.82C44.6868 82.06 44.0928 82.18 43.4688 82.18ZM50.4354 82C50.1714 82 49.9554 81.916 49.7874 81.748C49.6194 81.568 49.5354 81.346 49.5354 81.082V73.45C49.5354 73.186 49.6194 72.97 49.7874 72.802C49.9554 72.622 50.1714 72.532 50.4354 72.532C50.6874 72.532 50.8974 72.622 51.0654 72.802C51.2454 72.97 51.3354 73.186 51.3354 73.45V75.466L51.1554 74.692C51.2514 74.356 51.3954 74.044 51.5874 73.756C51.7914 73.468 52.0314 73.216 52.3074 73C52.5834 72.784 52.8894 72.616 53.2254 72.496C53.5734 72.376 53.9334 72.316 54.3054 72.316C54.6174 72.316 54.8874 72.4 55.1154 72.568C55.3434 72.736 55.4574 72.946 55.4574 73.198C55.4574 73.522 55.3734 73.762 55.2054 73.918C55.0374 74.062 54.8514 74.134 54.6474 74.134C54.4674 74.134 54.2934 74.098 54.1254 74.026C53.9574 73.942 53.7594 73.9 53.5314 73.9C53.2794 73.9 53.0214 73.966 52.7574 74.098C52.4934 74.23 52.2534 74.428 52.0374 74.692C51.8214 74.944 51.6474 75.244 51.5154 75.592C51.3954 75.94 51.3354 76.33 51.3354 76.762V81.082C51.3354 81.346 51.2454 81.568 51.0654 81.748C50.8974 81.916 50.6874 82 50.4354 82Z" fill="#333F61"/>
<path d="M52.9883 6.71468C52.2894 6.08995 45.8301 0.745076 29.9934 0.614258C14.1438 0.747746 7.69355 6.10597 7.01677 6.71201C-2.19915 14.4543 0.272397 40.3511 0.37912 41.4483C1.11967 49.6045 5.71527 54.9681 14.4184 57.8461C21.3489 60.1367 28.6178 60.0326 29.9947 59.9819C30.1626 59.9819 30.5284 59.9979 31.0581 59.9979C33.4567 59.9979 39.674 59.787 45.5802 57.8354C54.2872 54.9574 58.8789 49.5938 59.6182 41.4483C59.7288 40.3617 62.199 14.4623 52.9883 6.71468Z" fill="#932C00"/>
<path d="M52.8715 6.04969C52.3249 5.56112 45.8851 0.130819 29.995 0C14.1167 0.130819 7.67693 5.56112 7.1303 6.04969C-1.81621 13.5704 0.522581 38.5674 0.676158 40.1052C1.39068 47.973 5.90168 53.1871 14.4721 56.0064C21.5548 58.3504 29.0489 58.1769 30.0055 58.1422C30.172 58.1422 30.5365 58.1582 31.0636 58.1582C33.5599 58.1582 39.6886 57.9366 45.5376 56.001C54.104 53.1711 58.615 47.9677 59.3335 40.0999C59.4792 38.5674 61.8193 13.5704 52.8715 6.04969Z" fill="#FFF0E9"/>
<path d="M52.2857 8.88194C52.2857 8.88194 46.1413 3.21135 30.0014 3.0752C13.8629 3.21135 7.71587 8.88194 7.71587 8.88194C-0.289652 15.575 2.14806 39.5148 2.14806 39.5148C3.4834 54.4655 25.018 55.2478 30.0001 55.0689C34.9823 55.2478 56.5169 54.4762 57.8522 39.5148C57.8535 39.5148 60.2912 15.575 52.2857 8.88194Z" fill="#C63B00"/>
<path d="M50.7742 10.1158C50.7742 10.1158 44.6571 4.80028 29.1524 4.6748C13.6515 4.80028 7.95873 10.1158 7.95873 10.1158C0.515459 16.3897 3.74318 38.8211 3.74318 38.8211C5.57699 52.8427 26.293 53.5662 31.0747 53.4007C35.8681 53.5662 56.5268 52.8427 57.2556 38.8211C57.2543 38.8211 58.712 16.3897 50.7742 10.1158Z" fill="#FF7F48"/>
<path d="M20.957 40.1052C20.5837 40.1052 20.2664 39.9652 20.005 39.6852C19.7624 39.4239 19.6224 39.1066 19.585 38.7332L19.557 36.8292C19.557 35.8959 19.641 33.5812 19.809 29.8852C19.8277 29.7919 19.837 29.6892 19.837 29.5772C19.949 27.8039 20.005 26.0306 20.005 24.2572L19.081 24.9852C18.633 25.3026 18.185 25.6386 17.737 25.9932C17.681 26.0492 17.6157 26.0959 17.541 26.1332C17.429 26.2452 17.2517 26.4039 17.009 26.6092C16.7664 26.7959 16.505 27.0106 16.225 27.2532C15.945 27.4959 15.5997 27.6172 15.189 27.6172C14.8717 27.6172 14.573 27.4959 14.293 27.2532C14.0504 26.9732 13.929 26.6186 13.929 26.1892C13.929 25.8532 14.0504 25.5639 14.293 25.3212C15.2637 24.4812 16.2717 23.6786 17.317 22.9132C17.4104 22.8572 17.5037 22.7919 17.597 22.7172C17.709 22.6239 17.8024 22.5492 17.877 22.4932C17.9517 22.4372 18.017 22.3812 18.073 22.3252C18.7824 21.7839 19.5104 21.0932 20.257 20.2532C20.481 20.0292 20.7517 19.8986 21.069 19.8612C21.405 19.8612 21.6944 19.9266 21.937 20.0572C22.3477 20.3372 22.5717 20.7292 22.609 21.2332C22.7024 22.5586 22.749 23.8839 22.749 25.2092C22.749 26.6652 22.693 28.1212 22.581 29.5772L22.497 31.0892C22.3664 32.8999 22.301 34.7199 22.301 36.5492L22.329 38.7332C22.329 39.1066 22.189 39.4239 21.909 39.6852C21.629 39.9652 21.3117 40.1052 20.957 40.1052ZM34.5534 39.9932C32.5561 39.9932 30.8854 39.4332 29.5414 38.3132C28.7574 37.6786 28.2441 36.8479 28.0014 35.8212L27.9734 35.4852C27.9734 35.2426 28.0388 34.9812 28.1694 34.7012C28.3934 34.2906 28.7761 34.0852 29.3174 34.0852C30.0268 34.0852 30.4654 34.4212 30.6334 35.0932L30.7454 35.5412H30.7734V35.5692C30.8668 35.7186 30.9321 35.8399 30.9694 35.9332C31.0254 36.0079 31.1841 36.1572 31.4454 36.3812L31.5014 36.4092C31.7254 36.5772 31.9681 36.7172 32.2294 36.8292L32.2854 36.8572C32.3788 36.8946 32.4814 36.9226 32.5934 36.9412C33.0601 37.1092 33.4054 37.1932 33.6294 37.1932C33.9468 37.2306 34.2641 37.2492 34.5814 37.2492L35.5614 37.1932C36.0654 37.0999 36.5228 36.9786 36.9334 36.8292L37.3814 36.6052L37.8574 36.2692C38.0068 36.1572 38.1188 36.0452 38.1934 35.9332C38.3614 35.7092 38.4641 35.4759 38.5014 35.2332L38.6134 34.5892C38.6508 34.0666 38.6694 33.5066 38.6694 32.9092C38.6508 32.7972 38.6414 32.6479 38.6414 32.4612V32.4332C38.5854 32.0972 38.4921 31.7612 38.3614 31.4252C38.2494 31.1826 38.1468 31.0052 38.0534 30.8932L37.6894 30.5292L37.6334 30.5012C37.5028 30.4079 37.3628 30.3239 37.2134 30.2492H37.1854V30.2212L37.0734 30.1932C36.7748 30.0812 36.5321 30.0252 36.3454 30.0252V29.9972L35.4214 29.9692C35.1601 30.0066 34.8988 30.0252 34.6374 30.0252C33.6108 30.1932 32.6028 30.4732 31.6134 30.8652L31.4454 30.9492C31.0348 31.1172 30.6614 31.3039 30.3254 31.5092C30.1014 31.6212 29.8681 31.6772 29.6254 31.6772C29.2708 31.6772 28.9534 31.5559 28.6734 31.3132C28.4121 31.0146 28.2814 30.6786 28.2814 30.3052V30.1932C28.2814 30.0812 28.3001 29.8946 28.3374 29.6332C28.3748 29.3532 28.4028 29.0732 28.4214 28.7932V28.7652C28.5708 26.9732 28.7574 25.4239 28.9814 24.1172C29.2054 22.6986 29.6068 21.6626 30.1854 21.0092C30.8388 20.3746 32.0521 20.0572 33.8254 20.0572L38.3614 20.1972H39.0614C39.1734 20.1786 39.2761 20.1692 39.3694 20.1692C39.4814 20.1692 39.5934 20.1506 39.7054 20.1132C39.8361 20.0572 39.9574 20.0292 40.0694 20.0292C40.3121 20.0292 40.5641 20.1132 40.8254 20.2812C41.2361 20.5239 41.4414 20.8972 41.4414 21.4012C41.4414 22.4279 40.5454 22.9412 38.7534 22.9412C37.6894 22.9412 36.7934 22.9132 36.0654 22.8572C35.5241 22.8199 34.9734 22.8012 34.4134 22.8012C33.3494 22.8012 32.7334 22.8292 32.5654 22.8852C32.3788 22.8852 32.2014 22.9599 32.0334 23.1092V23.1372C31.9588 23.3239 31.9028 23.5199 31.8654 23.7252C31.6974 24.3412 31.5761 24.9666 31.5014 25.6012C31.4828 25.6199 31.4734 25.6572 31.4734 25.7132C31.4734 25.7506 31.4641 25.7879 31.4454 25.8252L31.3894 26.4692C31.2774 27.2532 31.2214 27.7946 31.2214 28.0932V28.1212C32.7894 27.5239 34.3108 27.2252 35.7854 27.2252C37.2414 27.2252 38.5481 27.7106 39.7054 28.6812C40.8441 29.7639 41.4134 31.2946 41.4134 33.2732C41.4134 35.1772 41.1054 36.5492 40.4894 37.3892C39.8921 38.2106 39.1454 38.8172 38.2494 39.2092C37.0361 39.7319 35.8041 39.9932 34.5534 39.9932Z" fill="white"/>
<path d="M25.7275 4.7998C12.814 5.60073 7.96459 10.118 7.96459 10.118C0.521318 16.3919 3.74904 38.826 3.74904 38.826C3.81312 39.3165 3.9003 39.7931 4.00934 40.249C3.76075 17.2436 13.1628 8.85518 25.7275 4.7998Z" fill="#EB7340"/>
<path d="M10.321 11.8651C9.42038 10.2045 7.56575 10.896 6.17574 13.4083C4.78574 15.9205 4.39009 19.3058 5.29333 20.9664C6.19657 22.627 6.66641 20.0133 8.05511 17.4957C9.44381 14.9781 11.2204 13.5257 10.321 11.8651Z" fill="white"/>
<path d="M4.98105 21.6152C4.46045 21.1987 3.88389 21.495 3.61708 22.5816C3.35027 23.6682 3.49734 25.1366 4.00753 25.5558C4.51772 25.9749 5.15545 25.4303 5.42226 24.341C5.68907 23.2518 5.49514 22.0343 4.98105 21.6152Z" fill="white"/>
<path d="M56.3571 22.2148C56.3193 23.5409 56.2322 24.8591 56.0968 26.1581C54.6964 39.7579 48.2422 49.4384 39.6641 52.8344C47.2882 51.6543 56.7606 48.2344 57.2499 38.8235C57.2538 38.8235 57.8083 30.2455 56.3571 22.2148Z" fill="#EB7340"/>
<path d="M52.2342 44.9051C53.0646 46.1332 54.5951 45.2042 55.6519 42.8307C56.7088 40.4573 56.8936 37.5366 56.0632 36.3085C55.2329 35.0804 54.8919 37.1334 53.8402 39.5122C52.7886 41.891 51.4038 43.6744 52.2342 44.9051Z" fill="white"/>
</svg>

<svg width="60" height="87" fill="none" xmlns="http://www.w3.org/2000/svg"><path d="M11.562 82c-.288 0-.522-.084-.702-.252a.94.94 0 0 1-.252-.666V70.3h1.926v10.782a.877.877 0 0 1-.288.666.963.963 0 0 1-.684.252ZM7.476 71.128a.956.956 0 0 1-.648-.234.847.847 0 0 1-.27-.648c0-.252.09-.456.27-.612a.956.956 0 0 1 .648-.234h8.19c.252 0 .462.084.63.252.18.156.27.36.27.612 0 .264-.09.474-.27.63a.89.89 0 0 1-.63.234h-8.19Zm12.62 9.954a.94.94 0 0 1-.252.666.877.877 0 0 1-.648.252.916.916 0 0 1-.648-.252.94.94 0 0 1-.251-.666v-7.704c0-.264.084-.48.252-.648.18-.18.396-.27.648-.27.264 0 .48.09.648.27a.877.877 0 0 1 .252.648v7.704Zm-.918-9.81c-.348 0-.6-.06-.756-.18-.155-.132-.233-.348-.233-.648v-.288c0-.3.084-.51.252-.63.168-.12.42-.18.756-.18.36 0 .617.066.774.198.155.12.233.324.233.612v.288c0 .312-.084.528-.252.648-.155.12-.414.18-.774.18Zm8.092 1.098c.888 0 1.572.222 2.052.666.48.432.798 1.02.954 1.764l-.288-.09.126-.288c.156-.312.39-.624.702-.936a3.934 3.934 0 0 1 1.152-.792 3.208 3.208 0 0 1 1.422-.324c.828 0 1.47.18 1.926.54.456.348.774.822.954 1.422.18.588.27 1.248.27 1.98v4.77a.94.94 0 0 1-.252.666.877.877 0 0 1-.648.252.916.916 0 0 1-.648-.252.94.94 0 0 1-.252-.666V76.33c0-.42-.06-.804-.18-1.152a1.547 1.547 0 0 0-.594-.828c-.276-.216-.66-.324-1.152-.324-.468 0-.888.108-1.26.324a2.243 2.243 0 0 0-1.152 1.98v4.752a.94.94 0 0 1-.252.666.877.877 0 0 1-.648.252.877.877 0 0 1-.648-.252.94.94 0 0 1-.252-.666v-4.77c0-.42-.06-.804-.18-1.152a1.581 1.581 0 0 0-.576-.828c-.276-.204-.66-.306-1.152-.306-.468 0-.882.102-1.242.306-.36.204-.642.48-.846.828a2.345 2.345 0 0 0-.288 1.152v4.77c0 .264-.09.486-.27.666a.855.855 0 0 1-.63.252.877.877 0 0 1-.648-.252.94.94 0 0 1-.252-.666V73.45c0-.264.084-.48.252-.648a.847.847 0 0 1 .648-.27c.252 0 .462.09.63.27.18.168.27.384.27.648v1.062l-.342.198a3.05 3.05 0 0 1 .414-.81c.192-.276.432-.528.72-.756.3-.228.63-.414.99-.558.36-.144.75-.216 1.17-.216Zm16.199 9.81c-.996 0-1.86-.204-2.592-.612a4.5 4.5 0 0 1-1.71-1.71c-.396-.732-.594-1.566-.594-2.502 0-1.056.21-1.956.63-2.7.432-.756.99-1.332 1.674-1.728a4.183 4.183 0 0 1 2.178-.612c.588 0 1.146.12 1.674.36a4.34 4.34 0 0 1 1.404.972c.42.408.75.894.99 1.458a4.73 4.73 0 0 1 .378 1.818.809.809 0 0 1-.288.594.932.932 0 0 1-.63.234H39.58l-.432-1.53h6.768l-.342.324v-.45a1.872 1.872 0 0 0-.414-1.098 2.443 2.443 0 0 0-.936-.738 2.654 2.654 0 0 0-1.17-.27c-.36 0-.708.06-1.044.18a2.341 2.341 0 0 0-.882.54c-.252.252-.456.588-.612 1.008-.144.408-.216.918-.216 1.53 0 .66.138 1.236.414 1.728a3.03 3.03 0 0 0 1.116 1.152c.468.264.984.396 1.548.396.444 0 .81-.042 1.098-.126.288-.096.528-.21.72-.342.192-.132.36-.258.504-.378.18-.108.36-.162.54-.162.216 0 .396.078.54.234a.711.711 0 0 1 .216.522c0 .264-.132.504-.396.72-.324.312-.774.588-1.35.828-.564.24-1.158.36-1.782.36Zm6.966-.18a.877.877 0 0 1-.648-.252.94.94 0 0 1-.252-.666V73.45c0-.264.084-.48.252-.648a.847.847 0 0 1 .648-.27c.252 0 .462.09.63.27.18.168.27.384.27.648v2.016l-.18-.774c.096-.336.24-.648.432-.936.204-.288.444-.54.72-.756.276-.216.582-.384.918-.504a3.29 3.29 0 0 1 1.08-.18c.312 0 .582.084.81.252.228.168.342.378.342.63 0 .324-.084.564-.252.72a.837.837 0 0 1-.558.216c-.18 0-.354-.036-.522-.108a1.313 1.313 0 0 0-.594-.126c-.252 0-.51.066-.774.198s-.504.33-.72.594c-.216.252-.39.552-.522.9-.12.348-.18.738-.18 1.17v4.32c0 .264-.09.486-.27.666a.855.855 0 0 1-.63.252Z" fill="#333F61"/><path d="M52.988 6.715C52.29 6.09 45.83.745 29.993.615c-15.85.133-22.3 5.491-22.976 6.097C-2.2 14.454.272 40.352.379 41.448c.74 8.157 5.336 13.52 14.04 16.398 6.93 2.29 14.199 2.187 15.576 2.136.168 0 .533.016 1.063.016 2.399 0 8.616-.211 14.522-2.163 8.707-2.878 13.299-8.241 14.038-16.387.11-1.086 2.581-26.986-6.63-34.733Z" fill="#932C00"/><path d="M52.871 6.05C52.325 5.56 45.886.13 29.995 0 14.117.13 7.677 5.561 7.13 6.05-1.816 13.57.523 38.567.676 40.105c.715 7.868 5.226 13.082 13.796 15.901 7.083 2.344 14.577 2.17 15.534 2.136.166 0 .53.016 1.058.016 2.496 0 8.625-.221 14.474-2.157 8.566-2.83 13.077-8.033 13.796-15.901.145-1.533 2.485-26.53-6.463-34.05Z" fill="#FFF0E9"/><path d="M52.286 8.882S46.14 3.212 30 3.075C13.863 3.211 7.716 8.882 7.716 8.882-.29 15.575 2.148 39.515 2.148 39.515 3.483 54.465 25.018 55.248 30 55.069c4.982.179 26.517-.593 27.852-15.554.002 0 2.44-23.94-5.566-30.633Z" fill="#C63B00"/><path d="M50.774 10.116S44.657 4.8 29.152 4.675c-15.5.125-21.193 5.44-21.193 5.44C.515 16.39 3.743 38.822 3.743 38.822c1.834 14.022 22.55 14.745 27.332 14.58 4.793.165 25.452-.558 26.18-14.58 0 0 1.457-22.431-6.48-28.705Z" fill="#FF7F48"/><path d="M20.957 40.105c-.373 0-.69-.14-.952-.42a1.592 1.592 0 0 1-.42-.952l-.028-1.904c0-.933.084-3.248.252-6.944a1.57 1.57 0 0 0 .028-.308c.112-1.773.168-3.546.168-5.32l-.924.728c-.448.318-.896.654-1.344 1.008a.746.746 0 0 1-.196.14c-.112.112-.29.27-.532.476a17.6 17.6 0 0 0-.784.644c-.28.243-.625.364-1.036.364-.317 0-.616-.121-.896-.364-.243-.28-.364-.634-.364-1.064 0-.336.121-.625.364-.868.97-.84 1.979-1.642 3.024-2.408.093-.056.187-.121.28-.196.112-.093.205-.168.28-.224.075-.056.14-.112.196-.168.71-.541 1.437-1.232 2.184-2.072.224-.224.495-.354.812-.392.336 0 .625.066.868.196.41.28.635.672.672 1.176a56.543 56.543 0 0 1-.028 8.344l-.084 1.512c-.13 1.81-.196 3.63-.196 5.46l.028 2.184c0 .374-.14.69-.42.952-.28.28-.597.42-.952.42Zm13.596-.112c-1.997 0-3.668-.56-5.012-1.68-.784-.634-1.297-1.465-1.54-2.492l-.028-.336c0-.242.066-.504.196-.784.224-.41.607-.616 1.148-.616.71 0 1.148.336 1.316 1.008l.112.448h.028v.028c.094.15.16.27.196.364.056.075.215.224.476.448l.056.028c.224.168.467.308.728.42l.056.028c.094.038.196.066.308.084.467.168.812.252 1.036.252.318.038.635.056.952.056l.98-.056a8.592 8.592 0 0 0 1.372-.364l.448-.224.476-.336c.15-.112.262-.224.336-.336.168-.224.271-.457.308-.7l.112-.644c.038-.522.056-1.082.056-1.68a2.853 2.853 0 0 1-.028-.448v-.028a5.081 5.081 0 0 0-.28-1.008 2.506 2.506 0 0 0-.308-.532l-.364-.364-.056-.028a3.126 3.126 0 0 0-.42-.252h-.028v-.028l-.112-.028c-.298-.112-.54-.168-.728-.168v-.028l-.924-.028a5.526 5.526 0 0 1-.784.056 14.584 14.584 0 0 0-3.024.84l-.168.084c-.41.168-.784.355-1.12.56a1.546 1.546 0 0 1-.7.168c-.354 0-.672-.121-.952-.364a1.491 1.491 0 0 1-.392-1.008v-.112c0-.112.02-.298.056-.56.038-.28.066-.56.084-.84v-.028c.15-1.792.336-3.341.56-4.648.224-1.418.626-2.454 1.204-3.108.654-.634 1.867-.952 3.64-.952l4.536.14h.7c.112-.018.215-.028.308-.028.112 0 .224-.018.336-.056a.93.93 0 0 1 .364-.084c.243 0 .495.084.756.252.411.243.616.616.616 1.12 0 1.027-.896 1.54-2.688 1.54-1.064 0-1.96-.028-2.688-.084a24.028 24.028 0 0 0-1.652-.056c-1.064 0-1.68.028-1.848.084a.792.792 0 0 0-.532.224v.028c-.074.187-.13.383-.168.588-.168.616-.289 1.242-.364 1.876-.018.019-.028.056-.028.112 0 .038-.009.075-.028.112l-.056.644c-.112.784-.168 1.326-.168 1.624v.028c1.568-.597 3.09-.896 4.564-.896 1.456 0 2.763.486 3.92 1.456 1.14 1.083 1.708 2.614 1.708 4.592 0 1.904-.308 3.276-.924 4.116a5.42 5.42 0 0 1-2.24 1.82 9.262 9.262 0 0 1-3.696.784Z" fill="#fff"/><path d="M25.727 4.8c-12.913.8-17.762 5.318-17.762 5.318C.52 16.392 3.749 38.826 3.749 38.826c.064.49.151.967.26 1.423-.248-23.005 9.154-31.394 21.718-35.45Z" fill="#EB7340"/><path d="M10.321 11.865c-.9-1.66-2.755-.969-4.145 1.543-1.39 2.513-1.786 5.898-.883 7.558.904 1.661 1.373-.953 2.762-3.47 1.389-2.518 3.165-3.97 2.266-5.63ZM4.981 21.615c-.52-.416-1.097-.12-1.364.967-.267 1.086-.12 2.555.39 2.974.51.419 1.148-.126 1.415-1.215.267-1.09.073-2.307-.44-2.726Z" fill="#fff"/><path d="M56.357 22.215a52.51 52.51 0 0 1-.26 3.943c-1.4 13.6-7.855 23.28-16.433 26.676 7.624-1.18 17.097-4.6 17.586-14.01.004 0 .558-8.578-.893-16.61Z" fill="#EB7340"/><path d="M52.234 44.905c.83 1.228 2.361.3 3.418-2.074 1.057-2.374 1.242-5.294.411-6.523-.83-1.228-1.171.825-2.223 3.204-1.051 2.379-2.436 4.162-1.606 5.393Z" fill="#fff"/></svg>
